static/img/showcase/ii-badge.svg

<svg fill="none" height="16" viewBox="0 0 16 16" width="16" xmlns="http://www.w3.org/2000/svg"><path clip-rule="evenodd" d="m5.42674 14.0355c-.30399.1205-.63541.1867-.9823.1867-1.47275 0-2.66666-1.1939-2.66666-2.6666 0-.3469.06623-.6784.18674-.9823-1.132105-.3082-1.96452-1.34355-1.96452-2.5733s.832416-2.26508 1.96452-2.57326c-.12051-.30399-.18674-.63541-.18674-.9823 0-1.47275 1.19391-2.66666 2.66666-2.66666.34689 0 .67831.06623.9823.18674.30818-1.132104 1.34351-1.96452 2.57326-1.96452s2.2651.832417 2.5733 1.96453c.304-.12052.6354-.18675.9823-.18675 1.4727 0 2.6666 1.19391 2.6666 2.66666 0 .34689-.0662.67831-.1867.9823 1.1321.30818 1.9645 1.34351 1.9645 2.57326s-.8324 2.2651-1.9645 2.5733c.1205.3039.1867.6354.1867.9823 0 1.4727-1.1939 2.6666-2.6666 2.6666-.3469 0-.6784-.0662-.9823-.1867-.3082 1.1321-1.34355 1.9645-2.5733 1.9645s-2.26508-.8324-2.57326-1.9645zm3.53958-7.3573c.60518-.49896 1.17778-.75227 1.70298-.75227 1.2577 0 2.2821.9365 2.2821 2.08487 0 .16735-.0212.33008-.062.48514-.001.00346-.0028.00942-.0056.01759.0027-.00665.0045-.01156.0054-.01452-.2398.91348-1.1435 1.59819-2.2168 1.60279h-.0016-.0017c-.87502 0-1.75487-.75798-2.40861-1.44337-.18583.20245-.43336.45523-.71988.69119-.60518.49895-1.17773.75228-1.70298.75228-1.25767 0-2.28207-.93652-2.28207-2.08796 0-.16734.0212-.32854.06198-.48514l.00035-.00108c.00075-.00228.00178-.00543.00312-.00938-.00172.00459-.00291.00809-.0036.01039.24142-.91347 1.14348-1.5982 2.21682-1.6028h.00163.00163c.87484 0 1.75446.7576 2.40815 1.44433.18592-.2026.43375-.45576.72068-.69206zm-.71937.69344c.0065.00683.01297.01364.01942.02045.07014.07216.96568.98564 1.35391 1.32339.10556.0918.50082.3788.97242.54686.0297.00402.0551.00584.0766.00584.7536-.00461 1.3686-.56805 1.3686-1.25584 0-.6924-.6133-1.25584-1.3686-1.25584-.2006 0-.5513.09365-1.08965.53734-.28872.2395-.53993.5051-.71447.70007-.32461-.3224-.61823-.62331-.61823-.62331zm-.60549.66259c-.17453.19495-.42562.46038-.71418.69975-.5383.44369-.88902.53734-1.08965.53734-.75526-.00154-1.36859-.56498-1.36859-1.25738 0-.68779.61496-1.25123 1.36859-1.25584.02306 0 .05057.00209.08301.00674.46785.17082.85983.45787.96572.54896.18471.16069.48425.4517.7551.72043z" fill="#29abe2" fill-rule="evenodd"/></svg>

<svg width="16" height="16" viewBox="0 0 16 16" fill="none"
  xmlns="http://www.w3.org/2000/svg">
  <path fill-rule="evenodd" clip-rule="evenodd" d="M5.42674 14.0355C5.12275 14.156 4.79133 14.2222 4.44444 14.2222C2.97169 14.2222 1.77778 13.0283 1.77778 11.5556C1.77778 11.2087 1.84401 10.8772 1.96452 10.5733C0.832415 10.2651 0 9.22975 0 8C0 6.77025 0.832416 5.73492 1.96452 5.42674C1.84401 5.12275 1.77778 4.79133 1.77778 4.44444C1.77778 2.97169 2.97169 1.77778 4.44444 1.77778C4.79133 1.77778 5.12275 1.84401 5.42674 1.96452C5.73492 0.832416 6.77025 0 8 0C9.22975 0 10.2651 0.832417 10.5733 1.96453C10.8773 1.84401 11.2087 1.77778 11.5556 1.77778C13.0283 1.77778 14.2222 2.97169 14.2222 4.44444C14.2222 4.79133 14.156 5.12275 14.0355 5.42674C15.1676 5.73492 16 6.77025 16 8C16 9.22975 15.1676 10.2651 14.0355 10.5733C14.156 10.8772 14.2222 11.2087 14.2222 11.5556C14.2222 13.0283 13.0283 14.2222 11.5556 14.2222C11.2087 14.2222 10.8772 14.156 10.5733 14.0355C10.2651 15.1676 9.22975 16 8 16C6.77025 16 5.73492 15.1676 5.42674 14.0355ZM8.96632 6.6782C9.5715 6.17924 10.1441 5.92593 10.6693 5.92593C11.927 5.92593 12.9514 6.86243 12.9514 8.0108C12.9514 8.17815 12.9302 8.34088 12.8894 8.49594C12.8884 8.4994 12.8866 8.50536 12.8838 8.51353C12.8865 8.50688 12.8883 8.50197 12.8892 8.49901C12.6494 9.41249 11.7457 10.0972 10.6724 10.1018H10.6708H10.6691C9.79408 10.1018 8.91423 9.34382 8.26049 8.65843C8.07466 8.86088 7.82713 9.11366 7.54061 9.34962C6.93543 9.84857 6.36288 10.1019 5.83763 10.1019C4.57996 10.1019 3.55556 9.16538 3.55556 8.01394C3.55556 7.8466 3.57676 7.6854 3.61754 7.5288L3.61789 7.52772C3.61864 7.52544 3.61967 7.52229 3.62101 7.51834C3.61929 7.52293 3.6181 7.52643 3.61741 7.52873C3.85883 6.61526 4.76089 5.93053 5.83423 5.92593H5.83586H5.83749C6.71233 5.92593 7.59195 6.68353 8.24564 7.37026C8.43156 7.16766 8.67939 6.9145 8.96632 6.6782ZM8.24695 7.37164C8.25345 7.37847 8.25992 7.38528 8.26637 7.39209C8.33651 7.46425 9.23205 8.37773 9.62028 8.71548C9.72584 8.80728 10.1211 9.09428 10.5927 9.26234C10.6224 9.26636 10.6478 9.26818 10.6693 9.26818C11.4229 9.26357 12.0379 8.70013 12.0379 8.01234C12.0379 7.31994 11.4246 6.7565 10.6693 6.7565C10.4687 6.7565 10.118 6.85015 9.57965 7.29384C9.29093 7.53334 9.03972 7.79894 8.86518 7.99391C8.54057 7.67151 8.24695 7.3706 8.24695 7.3706V7.37164ZM7.64146 8.03423C7.46693 8.22918 7.21584 8.49461 6.92728 8.73398C6.38898 9.17767 6.03826 9.27132 5.83763 9.27132C5.08237 9.26978 4.46904 8.70634 4.46904 8.01394C4.46904 7.32615 5.084 6.76271 5.83763 6.7581C5.86069 6.7581 5.8882 6.76019 5.92064 6.76484C6.38849 6.93566 6.78047 7.22271 6.88636 7.3138C7.07107 7.47449 7.37061 7.7655 7.64146 8.03423Z" fill="#29ABE2"/>
</svg>
